X: 26668
T: Midnight On The Water
R: waltz
M: 3/4
K: Dmajor
DE|:"D"F2 F2 FE|"D" F2 F2 FE|"D" F A3 AB|"D6" AF "D" ED DE|
"D"F2 d2 "G"B2|"D" A3 F DE|"A" F2 AF EF|1 "D" D4 DE:|2 "D" D4 (3ABc||
|:"D"d6|"D" dc BA Bc|"D" d3 B AF|"D" D4 d2|
"Em"e e3 f2|"Em7" e2 d2 e2|"Bm"f a3 f2|"F#m7"xgfed Bc|
"G"d3 cde|"G6" dc BA Bc|"D" d3 B AF|"D" D4 DE|
"D"F2 d2 "G"B2|"D" A3 F DE|"A" F2 AF EF|"D" D4||

